!!!!SEGMENT: pl-wtm--r-513-5-m_moniuszko-stanislaw--flis-pozegnanie-flisa.krn
!!!cenid: 18xx:2981
!!!COM: Moniuszko, Stanisław
!!!COM-rism: pe30008351
!!!CDT: 1819/05/05-1872/06/04
!!!CNT: Polish
!!!OTL: Flis – Pożegnanie Flisa
!!!PDT: 1858
!!!AGN: Secular
!!!SMS-siglum: PL-Wtm
!!!SMS-shelfmark: R 513-5/M
!!!NIFC-rismID: 1001087809
!!!URL-scan: http://repozytorium.nifc.pl/skany/pl-wtm-nut--r513m-5
!!!ONB-nifc:
!!!SMS-variant:
!!!SMS-altvar:
!!!OMD: Andantino.
**kern	**kern	**dynam	**kern	**text	**text	**dynam
*group2	*group2	*	*group1	*	*	*
*part3	*part2	*part2	*part1	*part1	*part1	*part1
*staff3	*staff2	*	*staff1	*staff1	*staff1	*
*I"[Piano]	*I"[Piano]	*	*I"[Voce]	*	*	*
*clefF4	*clefG2	*	*clefG2	*	*	*
*k[]	*k[]	*	*k[]	*	*	*
*M12/8	*M12/8	*	*M12/8	*	*	*
=1	=1	=1	=1	=1	=1	=1
*all\right	*all\right	*	*all\right	*color:red	*color:red	*
!LO:TX:t=P:problem:all\right:global	!LO:TX:t=P:problem:all\right:global	!	!LO:TX:t=P:problem:all\right:global	!	!	!
!	!	!LO:DY:rj	!LO:TX:a:t=(&colon; Śpiewana przez Pana Dobrskiego&colon;)	!	!	!
4AA/	8r	p	4r	.	.	.
.	8A'</L 8c	.	.	.	.	.
8r	8c'</J 8e	.	8r	.	.	.
4r	(<8e/L 8cc	.	4r	.	.	.
.	8c/) 8a	.	.	.	.	.
8r	8A'</J 8c 8e	.	8ee\	Więc	.	.
(<2.BB/	8r	.	[<4.g#X/	że-	.	.
.	8G#X'</L 8d 8e	.	.	.	.	.
.	8d'</J 8e 8g#X	.	.	.	.	.
.	(<8e/L 8g# 8b	.	4g#/]	.	.	.
.	8d/) 8e 8g#	.	.	.	.	.
.	8G#'</J 8d 8e	.	8g#/	-gnam	.	.
=2	=2	=2	=2	=2	=2	=2
4.C/)	8r	.	4.a/	cię	.	.
.	8A'</L 8c 8e	.	.	.	.	.
.	8A'</J 8e 8a	.	.	.	.	.
4.GG#X/	8r	.	4b/	już	.	.
.	8B'</L 8e	<	.	.	.	.
.	8B'</J 8e 8b	.	8b/	o	.	.
4.AA/	8r	.	8cc\L	Zo-	.	.
.	8c'</L 8e	.	8b\J	.	.	.
.	8e'</J 8a 8cc	.	8cc\	-siu	.	.
4.FF/	8r	.	4dd\	mo-	.	.
.	8d'</L 8a 8dd	[	.	.	.	.
.	8d'</J 8a	.	8a/	-ja	.	.
!!LO:LB:g=original
=3	=3	=3	=3	=3	=3	=3
2.GG/	8r	.	[>4.b\	dro-	.	.
.	8B'</L 8d	.	.	.	.	.
.	8B'</J 8d 8g	.	.	.	.	.
.	(<8d/L 8g 8b	.	4b\]	.	.	.
.	8B/) 8d 8g	.	.	.	.	.
.	8g'</J 8b 8dd	.	8dd\	-ga!	.	.
4.DD/ 4.D	8r	.	[>4.ff^>\	Wię-	.	.
.	8d'</L 8f	.	.	.	.	.
.	8f'</J 8a 8dd	.	.	.	.	.
4.BB/	8r	.	8ff\L]	.	.	.
.	8d/L 8e 8g#X	.	8.ee\J	.	.	.
.	8e/J 8g# 8b	.	.	.	.	.
.	.	.	16dd#X\	-cej	.	.
=4	=4	=4	=4	=4	=4	=4
4.C/	8r	.	4ee\	już	.	.
.	8e'</L 8a 8ee	.	.	.	.	.
.	8e'</J 8a 8cc	.	8b\	nie	.	.
4.AA/	8dd'</L	.	8dd\L	uj-	.	.
.	8e'</ 8a 8cc	.	8cc\J	.	.	.
.	8c'</J 8e 8a	.	8a/	-rzę	.	.
(>4E\	8r	.	8g#X/	cię.	.	.
.	8B'</L 8e 8g#X	.	8r	.	.	.
8D\)	8B'</J 8e 8g#	.	8g#/	nie	.	.
4C/	8r	.	4a/	uj-	.	.
.	8A/L 8e 8a	.	.	.	.	.
8AA/	8e/J 8a 8cc	.	8cc\	-rzę	.	.
=5	=5	=5	=5	=5	=5	=5
2.EE/	8g#X/ 8b	.	4ee\	cię!	.	.
.	8e'</L 8g#	.	.	.	.	.
.	8e'</J 8g# 8b	.	8r	.	.	.
.	8g#/L 8b 8ee	.	4r	.	.	.
.	8e/ 8g# 8b	.	.	.	.	.
!	!	!	!	!	!	!LO:HP:a:color=red
*ped	*	*	*	*	*	*
.	8e/J 8g#	.	8ee\	Ja	.	<
!	!	!	!	!	!	!LO:HP:a:color=red
2.DD/ 2.D	8g#:/'< 8b: 8dd: 8ff:	sf	[>4.ff\	zaw-	.	[ >
.	8B'</L 8f 8g#	.	.	.	.	.
.	8d'</J 8f 8g#	.	.	.	.	.
.	8f'</L 8g#	.	4ff\]	.	.	]
.	8d'</ 8f 8g#	.	.	.	.	.
!LO:TX:b:t=[coda]	!	!	!	!	!	!
.	8B'/J 8f 8g#	.	8g#X/	-sze	.	.
!!LO:LB:g=original
=6	=6	=6	=6	=6	=6	=6
(<4.C/	8r	.	4.a\	bę-	.	.
.	8A/L 8e	.	.	.	.	.
.	8e/J 8a	<	.	.	.	.
4.BB/	8r	.	4.b\	-dę	.	.
.	8d/L 8e 8g#X	.	.	.	.	.
.	8e/J 8g# 8b	.	.	.	.	.
4.AA/	8r	.	8cc\L	bła-	.	.
.	8c/L 8e 8a	.	8b\J	.	.	.
.	8e/J 8a 8cc	.	8cc\	-gać	.	.
4GG/	8r	.	4dd\	bę-	.	.
.	8g#/L 8b 8dd	.	.	.	.	.
8FF/)	8g#/J	[	8g/	-dę	.	.
=7	=7	=7	=7	=7	=7	=7
*ped	*	*	*2\right	*	*	*
(>4.EE/ 4.E	8g:\ 8cc: 8gg:	f	[>2.gg\	Bo-	.	.
.	8c'</L 8g	.	.	.	.	.
.	8g'</J 8cc	.	.	.	.	.
4.AA/)	8g'</L 8cc 8ee	.	.	.	.	.
.	8e'</ 8g 8cc	.	.	.	.	.
*Xped	*	*	*	*	*	*
.	8c'</J 8e 8g	.	.	.	.	.
(<4.D/	8r	.	8gg\L]	.	.	.
.	8A/L 8d 8f#X	.	8ff#X\J	.	.	.
.	8d/J 8f# 8a	.	8dd\	-ga!	.	.
4.GG/)	8r	.	8ffn\L	za	.	.
.	8d/L 8fn 8b	.	8ee\J	.	.	.
.	8d/J 8f 8g	.	8b/	twe	.	.
=8	=8	=8	=8	=8	=8	=8
(<4.C/	8r	.	8dd\L	szczę-	.	.
.	8c'</L 8e 8g	.	8cc\J	.	.	.
.	8c'</J 8e 8g#X	.	8g#X/	-ście	.	.
8FF/L	(<8a/L	.	8a\L	bę-	.	.
8CC/)	8g#/) 8a 8ee	.	8ee\J	.	.	.
8DD'/J	8f'</J 8a 8dd	.	8dd\	-dę	.	.
!	!	!	!LO:SIC:v:s:t=mo-dlić	!	!	!
(<8.EE^</L	8r	.	[>4.cc\	mod-	.	.
.	8e'</L 8a 8cc	.	.	.	.	.
16FF/K	.	.	.	.	.	.
8FF#X/J)	8c'</J 8d 8a	.	.	.	.	.
4GG/	8g#/L	.	8cc\L]	.	.	.
.	.	.	16qqb/LL	.	.	.
.	.	.	16qqcc/JJ	.	.	.
.	8f'</ 8g# 8dd	.	8.dd\J	.	.	.
8r	8d'/J 8f 8g# 8b	.	.	.	.	.
.	.	.	16b\	-lić	.	.
!!LO:LB:g=original
=9	=9	=9	=9	=9	=9	=9
8CC/L 8C	8e/ 8g 8cc	.	4cc\	się.	.	.
!LO:TX:b:t=marcato.	!	!	!	!	!	!
8E/|	8G'</L 8c 8e 8g	.	.	.	.	.
8BB/J|	8G'</J 8c 8e 8g	.	4r	.	.	.
*	*tremolo	*	*	*	*	*
8C/L|	8G/L 8c 8e 8g	.	.	.	.	.
8EE/|	8G/ 8c 8e 8g	.	8r	.	.	.
!	!	!	!LO:SIC:v:s:t=O-de-pchnę-li-ście	!	!	!
8GG/J|	8G/J 8c 8e 8g	.	16cc\	O-	.	.
.	.	.	16dd\	-dep-	.	.
8C/L|	8G/L 8c 8e 8g	.	[>4.ee\	-chnę-	.	.
8E/|	8G/ 8c 8e 8g	.	.	.	.	.
8BB/J|	8G/ 8c 8e 8g	.	.	.	.	.
8C/L|	8G/ 8c 8e 8g	.	8ee\]	.	.	.
8EE/|	8G/ 8c 8e 8g	.	8cc\	-liś-	.	.
8GG/J|	8G/J 8c 8e 8g	.	8a\	-cie	.	.
*	*Xtremolo	*	*	*	*	*
=10	=10	=10	=10	=10	=10	=10
*	*tremolo	*	*	*	*	*
8C/L|	8G/L 8c 8e 8g	.	4g/	mnie	.	.
8E/|	8G/ 8c 8e 8g	.	.	.	.	.
8BB/J|	8G/ 8c 8e 8g	.	8r	.	.	.
8C/L|	8G/ 8c 8e 8g	.	4r	.	.	.
8EE/|	8G/ 8c 8e 8g	.	.	.	.	.
8GG/J|	8G/ 8c 8e 8g	.	8cc\	bied-	.	.
8C/L	8G/ 8c 8e 8g	.	(>4b\	-ne-	.	.
8E/|	8G/ 8c 8e 8g	.	.	.	.	.
8BB/J|	8G/ 8c 8e 8g	.	8cc\)	.	.	.
8C/L|	8G/ 8c 8e 8g	.	4dd\	-go	.	.
8EE/|	8G/ 8c 8e 8g	.	.	.	.	.
8GG/J|	8G/J 8c 8e 8g	.	8ee\	sie-	.	.
*	*Xtremolo	*	*	*	*	*
=11	=11	=11	=11	=11	=11	=11
*^	*	*	*	*	*	*
*	*2\right	*tremolo	*	*	*	*	*
8C/L	2.FF\	8c/L 8e 8a	.	4.ee\	-ro-	.	.
8E/|	.	8c/ 8e 8a	.	.	.	.	.
8BB/J|	.	8c/ 8e 8a	.	.	.	.	.
8C/L|	.	8c/ 8e 8a	.	8cc\	-tę,	.	.
8FF/|	.	8c/ 8e 8a	.	8r	.	.	.
8AA/J|	.	8c/J 8e 8a	.	16cc\	któ-	.	.
.	.	.	.	16dd\	-ry	.	.
8C/L	2.FF#X\	8c/L 8e 8a	.	[>4.ee\	ser-	.	.
8E/|	.	8c/ 8e 8a	.	.	.	.	.
8BB/J|	.	8c/J 8e 8a	.	.	.	.	.
8C/L|	.	8c/L 8d 8a	.	8ee\L]	.	.	.
8FF#/|	.	8c/ 8d 8a	.	8dd\J	.	.	.
8AA/J|	.	8c/J 8d 8a	.	8cc\	-cem	.	.
*	*	*Xtremolo	*	*	*	*	*
*v	*v	*	*	*	*	*	*
!!LO:PB:g=original
=12	=12	=12	=12	=12	=12	=12
*	*tremolo	*	*	*	*	*
!!mixed beam:problem
!LO:TX:t=P:problem:mixed beam	!	!	!	!	!	!
8GG/L|	8c/L 8e 8g	<	[>4.gg\	ca-	.	.
8G\|	8c/ 8e 8g	.	.	.	.	.
8E\J|	8c/ 8e 8g	.	.	.	.	.
8C/L|	8c/ 8e 8g	.	4gg\]	.	.	.
8EE/|	8c/ 8e 8g	.	.	.	.	.
[<8GG/J|	8c/J 8e 8g	.	8g/	-łem	.	.
*	*Xtremolo	*	*	*	*	*
2.GGG/ 2.GG]	8c/L 8f 8a	[ fp	4a/	czu-	.	.
.	(<8c/ 8f 8a	.	.	.	.	.
.	8B/J 8f 8g	.	8b\	-le	.	.
.	8A/L) 8d 8f	.	4cc\	ko-	.	.
.	(<8A/ 8d 8f	.	.	.	.	.
.	.	.	8qee/	.	.	.
.	8G/J) 8B 8d 8f	.	8dd\	-cha<m>	.	.
=13	=13	=13	=13	=13	=13	=13
2.CC/	8r	.	4cc\	was!	.	.
.	8G/L 8c 8e|	.	.	.	.	.
.	8c/J 8e 8g|	.	8r	.	.	.
.	8e/L 8g 8cc|	.	4r	.	.	.
.	8e/ 8g|	.	.	.	.	.
.	8e/J 8g 8ee|	.	8ee\	a	.	.
!	!	!	!LO:S:color=red	!	!	!
(<2.FF/ 2.F	8r	.	(>[<4.a^</	je-	.	.
.	8c/L 8f 8a|	.	.	.	.	.
.	8c/J 8f 8a|	.	.	.	.	.
*	*tremolo	*	*	*	*	*
.	8c/L 8f 8a	.	8a/]	.	.	.
!	!	!	!	!	!	!LO:HP:a:color=red
.	8c/ 8f 8a	.	16b\LL	.	.	<
.	.	.	16cc\JJ)	.	.	.
!	!	!	!LO:S:color=red	!	!	!
.	8c/J 8f 8a	.	(>16dd\LL	-go	.	.
.	.	.	16ee\JJ)	.	.	[[
*	*Xtremolo	*	*	*	*	*
=14	=14	=14	=14	=14	=14	=14
2.D/	8r	.	[>4.ff\	żal,	.	.
.	8d/L 8f 8a|	<	.	.	.	.
.	8d/J 8f 8a|	.	.	.	.	.
*	*tremolo	*	*	*	*	*
.	8d/L 8f 8a	.	4ff\]	.	.	.
.	8d/ 8f 8a	.	.	.	.	.
.	8d/J 8f 8a	.	8dd\	cier-	.	.
4.BB-X/	8d/L 8f 8b-X	[ >	4ff\	-pie-	.	.
.	8d/ 8f 8b-	.	.	.	.	.
.	8d/J 8f 8b-	.	8ff\	-nie	.	.
4.GG/	8d/L 8e 8b-	]	4ee\	i	.	.
.	8d/ 8e 8b-	.	.	.	.	.
.	8d/J 8e 8b-	.	8dd\	zgry-	.	.
*	*Xtremolo	*	*	*	*	*
!!LO:LB:g=original
=15	=15	=15	=15	=15	=15	=15
*	*tremolo	*	*	*	*	*
4AA/)	8d/L 8e 8g 8a	.	4.dd\	-zo-	.	.
.	8d/ 8e 8g 8a	.	.	.	.	.
8E\|	8d/J 8e 8g 8a	.	.	.	.	.
(>8A\L	8c#X/L 8e 8a	.	4cc#X\	-tę,	.	.
8G\)	8c#/ 8e 8a	.	.	.	.	.
8E\J|	8c#/J 8e 8a	.	8r	.	.	.
*	*Xtremolo	*	*	*	*	*
(>4F\	8d/L 8a	<	4dd\	skró-	.	.
.	8d/ 8a	.	.	.	.	.
8E\	8e/J 8a	.	8ee\	-ci	.	.
4D\	8f/L 8a	[ >	4ff\	tyl-	.	.
.	8d/ 8f 8a	.	.	.	.	.
8F\)	8d/J 8a	]]	8dd'>\	-ko	.	.
=16	=16	=16	=16	=16	=16	=16
8EE/L 8E	8B/L 8g#X	<	[4.ee\	[[czas!]]	śmierć!	.
(<8G#X/	8e/ 8b	.	.	.	.	.
8B/J)	8e/J 8g# 8b	.	.	.	.	.
8d'\L	8e/L 8b	[ >	4ee\]	.	.	.
8c'\	8e/	.	.	.	.	.
8B'\J	8d/J 8e	.	8r	.	.	.
(>4F\ 4A	8d/L 8a|	]	4dd\	skró-	.	.
.	8d/ 8a|	.	.	.	.	.
8E\ 8G#	8A/J 8e 8a|	.	8ee\	-ci	.	.
4D\ 4F	8A/L 8f 8a|	.	8ff\L	tyl-	.	.
.	8d/ 8f 8a|	.	8ee\J	.	.	.
(>8C\) 8A	8d/J 8f 8a|	.	8dd\	-ko	.	.
=17	=17	=17	=17	=17	=17	=17
8BB\) 8G	8d/L 8f 8g|	.	[>2.gg\	czas!	.	.
8CC/L 8C|	8d/ 8f 8a|	.	.	.	.	.
8BBB/J 8BB|	8d/J 8f 8g|	.	.	.	.	.
8CC/L 8C|	8d/L 8f 8a|	.	.	.	.	.
8BBB/ 8BB|	8d/ 8f 8g|	.	.	.	.	.
!	!	!LO:HP:t=molto crescendo.	!	!	!	!
8AAA/J 8AA|	8d/J 8f 8a|	<	.	.	.	.
8GGG/L 8GG|	8d/L 8f 8b|	.	4.gg\_>	.	.	.
8AAA/ 8AA|	8d/ 8f 8cc|	.	.	.	.	.
8GGG/J 8GG|	8d/J 8f 8b|	.	.	.	.	.
*coll8ba	*	*	*	*	*	*
!LO:TX:t=P:problem:ottava mark	!	!	!	!	!	!
8FFF/L 8FF|	8a/L 8cc|	.	4gg\]	.	.	.
*Xcoll8ba	*	*	*	*	*	*
*coll8ba	*	*	*	*	*	*
!LO:TX:t=P:problem:ottava mark	!	!	!	!	!	!
8EEE/ 8EE|	8g/ 8cc|	.	.	.	.	.
*Xcoll8ba	*	*	*	*	*	*
*coll8ba	*	*	*	*	*	*
!LO:TX:t=P:problem:ottava mark	!	!	!	!	!	!
8DDD/J 8DD|	8g/J 8b 8ff|	[[	8ff\	a	.	.
*Xcoll8ba	*	*	*	*	*	*
!!LO:LB:g=original
=18	=18	=18	=18	=18	=18	=18
!LO:TX:t=P:problem:ottava mark	!	!	!	!LO:S:color=red	!	!LO:DY:a:color=red
*ped	*	*	*	*	*	*
*coll8ba	*	*	*	*	*	*
2.CC/ 2.CCC	8e:/ 8g: 8cc: 8ee:	fp	(>4.ee\	je-	.	f
.	8c/L 8e 8g|	.	.	.	.	.
.	8e/J 8g 8cc|	.	.	.	.	.
.	.	.	16qqff/LL	.	.	.
.	.	.	16qqee/JJ	.	.	.
.	8g/L 8cc 8ee|	.	4dd\)	.	.	.
.	8e/ 8g 8cc|	.	.	.	.	.
*Xped	*	*	*	*	*	*
.	8c/J 8e 8g|	.	8ee\	-go	.	.
*Xcoll8ba	*	*	*	*	*	*
*ped	*	*	*	*	*	*
*coll8ba	*	*	*	*	*	*
!LO:TX:t=P:problem:ottava mark	!	!	!	!	!	!
2.FF/ 2.FFF	8d:/ 8f: 8a: 8dd:	fp	4.gg\	żal	.	.
.	8A/L 8d 8f|	.	.	.	.	.
.	8d/J 8f 8a|	.	.	.	.	.
.	8f/L 8a 8dd|	.	4ff\	skró-	.	.
.	8d/ 8f 8a|	.	.	.	.	.
*Xped	*	*	*	*	*	*
.	8A/J 8d 8f|	.	8dd\	-ci	.	.
*Xcoll8ba	*	*	*	*	*	*
=19	=19	=19	=19	=19	=19	=19
!LO:TX:t=P:problem:ottava mark	!	!	!	!	!	!
*coll8ba	*	*	*	*	*	*
*ped	*	*	*	*	*	*
4.GG/ 4.GGG	8c:/ 8e: 8g: 8cc:	fp	(>[<4.cc\	tyl-	.	.
.	8G/L 8c 8e	.	.	.	.	.
.	8c/J 8e 8g	.	.	.	.	.
*Xped	*	*	*	*	*	*
*Xcoll8ba	*	*	*	*	*	*
(<8GG/L 8G	8e/L 8cc|	.	8cc\L]	.	.	.
8FF#X/ 8F#X	8c'</ 8e 8a	.	16dd\L	.	.	.
.	.	.	16cc\JJ)	.	.	.
8FFn/J 8Fn	8A/J 8d#X 8a	.	16b\LL	-ko,	.	.
.	.	.	16cc\JJ	.	.	.
!!mixed beam:problem
!	!LO:S:color=red	!	!	!	!	!
!LO:TX:t=P:problem:mixed beam	!LO:ART:color=red	!	!	!	!	!
*ped	*	*	*	*	*	*
8EE/L) 8E/	(>[<4.e^^>/ [>4.ee	???	4.cc\	tyl-	.	.
8A\ 8c\	.	.	.	.	.	.
*Xped	*	*	*	*	*	*
8C\J 8E\ 8A\	.	.	.	.	.	.
*ped	*	*	*	*	*	*
8EE/ 8E	4e/] 4ee]	.	4.b\	-ko	.	.
8D\L 8G#X 8B	.	.	.	.	.	.
*Xped	*	*	*	*	*	*
8BB\J 8D 8E 8G#	8G#X/) 8g#X	.	.	.	.	.
=20	=20	=20	=20	=20	=20	=20
!	!	!LO:DY:a	!	!	!	!
8AAA/ 8AA	4.A^</ 4.c 4.e 4.a	f	4a/	czas!	.	.
8AA\L 8E|	.	.	.	.	.	.
8E\J 8A|	.	.	8r	.	.	.
8AAA/ 8AA	4B^</ 4e 4b	.	4r	.	.	.
8E\L 8G#X|	.	.	.	.	.	.
8G#\J 8B|	8e/ 8b	.	8r	.	.	.
8AA/	(<8c^</L 8e 8cc	.	2.r	.	.	.
8E\L 8A	8B/) 8e 8b	.	.	.	.	.
8A\J	8c/J 8e 8cc	.	.	.	.	.
*ped	*	*	*	*	*	*
8DD/L	(>4d^</ 4f#X 4dd	.	.	.	.	.
8AA/ 8F#X	.	.	.	.	.	.
*Xped	*	*	*	*	*	*
8D/J 8A	8d/) 8f# 8a	.	.	.	.	.
!!LO:LB:g=original
=21	=21	=21	=21	=21	=21	=21
[<4.GG\ [>4.G\	8B:/ 8d: 8g: 8b:	.	2.r	.	.	.
.	8B/L 8d|	.	.	.	.	.
.	8d/J 8g|	.	.	.	.	.
(<8GG/L] 8G]	8g'</L 8b	.	.	.	.	.
8FF#X/ 8F#X	8B/ 8d|	.	.	.	.	.
8FFn/J) 8Fn	8B/J 8g|	.	.	.	.	.
*ped	*	*	*	*	*	*
(<4.EE/ 4.E	8r	p	[>4.ee\	Że-	.	.
.	8B/L 8e 8g#X|	.	.	.	.	.
.	8e/J 8g# 8b|	.	.	.	.	.
4.DD/ 4.D	(<8g#/L 8b 8ee	.	4ee\]	.	.	.
.	8e/ 8g# 8b	.	.	.	.	.
*Xped	*	*	*	*	*	*
.	8B/J) 8e 8g#	.	8g#X/	-gnam	.	.
=22	=22	=22	=22	=22	=22	=22
*^	*	*	*	*	*	*
4.CC#X/ 4.C#X	2ryy	8r	.	4.a/	cię	.	.
.	.	8A'/L 8e 8a	<	.	.	.	.
.	.	8A'/J 8e	.	.	.	.	.
4.GG/)	.	8r	.	4.b/	już	.	.
.	4ryy	8B/L 8e 8b	.	.	.	.	.
.	.	8B/J 8e	.	.	.	.	.
8AA/L	(<4.AA\	(<8a/L 8cc#X	.	8cc#X\L	Zo-	.	.
8E/	.	8g#X/) 8b	.	8b\J	.	.	.
8A/J)	.	8gn'/J 8cc#	[	8cc#\	-siu	.	.
4.ryy	(>8D\L	[<8f#X/L (<8cc# (<8ee	.	8ee\L	mo-	.	.
.	8F#X\	8f#/] 8b) 8dd)	.	8dd\J	.	.	.
.	8A'>\J)	8a'</J 8cc#	.	8cc#\	-ja	.	.
=23	=23	=23	=23	=23	=23	=23	=23
*	*	*^	*	*	*	*	*
8EE/L	4.ryy	[>4.b/	8a\L	sf	4.b\	dro-	.	.
8BB/	.	.	8g#X\	.	.	.	.	.
[<8E/J	.	.	8f#X\J	.	.	.	.	.
*	*	*Xtuplet	*	*	*	*	*	*
!	!	!LO:TX:t=P:problem:klamra łukowa	!	!	!	!	!	!
(>4d/	8E\L] (>8A	4b/]	24f#\LL	.	4b\	-ga!	.	.
.	.	.	24g#\	.	.	.	.	.
.	.	.	24f#\J	.	.	.	.	.
.	8G#X\J)	.	8e\	.	.	.	.	.
8B/)	8E\	8e/	8d\J	.	8r	.	.	.
8AA/L 8A	4ryy	8c#X/L 8a 8cc#X	4ryy	.	8cc#X\L	Że-	.	.
8AA'</ 8E	.	8e/ 8g#X 8b|	.	.	8b\J	.	.	.
8AA/J 8E|	2ryy	8e/J 8a 8cc#|	2ryy	.	8cc#\	-gnam,	.	.
!	!	!LO:TX:b:t=cres._cen..:problem:dynamics with extention lines	!LO:HP:b:t=cres.-cen..:ext=ud	!	!	!	!	!
*tremolo	*	*	*	*	*	*	*	*
8AA/L 8E	.	8e/L 8b 8dd|	.	<	8dd\L	że-	.	.
8AA/ 8E	.	8e/ 8a 8cc#|	.	.	8cc#\J	.	.	.
8AA/J 8E	.	8e/J 8b 8dd|	.	.	8dd\	-gnam	.	.
*Xtremolo	*	*	*	*	*	*	*	*
*v	*v	*	*	*	*	*	*	*
*	*v	*v	*	*	*	*	*
!!LO:PB:g=original
=24	=24	=24	=24	=24	=24	=24
8AA\L 8E	8cc#X/L 8ee	.	[>4.ee\	was!	.	.
8AA\ 8E 8A|	8e/ 8a 8ee	.	.	.	.	.
8AA\J 8E 8B|	8e/J 8a 8ee	.	.	.	.	.
*	*tremolo	*	*	*	*	*
8AA\L 8E 8c#X|	8e/L 8a 8ee	.	4ee\]	.	.	.
8AA\ 8E 8A|	8e/ 8a 8ee	.	.	.	.	.
8AA\J 8E 8B|	8e/J 8a 8ee	.	8r	.	.	.
*	*Xtremolo	*	*	*	*	*
8AA\ 8E 8cn|	8e/L 8a 8ee|	[	8ee\L	że-	.	.
8A\L 8c	8e/ 8a 8dd	.	8dd\J	.	.	.
8A\J 8c	8e/J 8a 8ee	.	8ee\	-gnam,	.	.
*tremolo	*	*	*	*	*	*
8D\L 8A 8c	8a/L 8cc#/ 8ff#X/	.	8ff#X\L	że-	.	.
8D\ 8A 8c	8a/ 8cc#/ 8ee/	.	8ee\J	.	.	.
8D\J 8A 8c	8a/J 8cc#/ 8ff#/	.	8ff#\	-gnam	.	.
*Xtremolo	*	*	*	*	*	*
=25	=25	=25	=25	=25	=25	=25
8EE/ 8E	[<4.g^>\ 4.cc 4.ee (>[>4.gg	f	(>2.gg\	was	.	.
8E\L 8G (>8c	.	.	.	.	.	.
8G\J) 8e	.	.	.	.	.	.
8c\L (>8e	8g\L] 8gg]	.	.	.	.	.
8G'>\) 8c	8f\ 8ff	.	.	.	.	.
8c'>\J	8e\J) 8ee	.	.	.	.	.
!	!LO:S:color=red	!	!	!	!	!
8DD/ 8D	[<4.f^>\ 4.g#X 4.b (>[>4.ff	.	2.gg#X\	.	.	.
8D/L 8F 8G#X|	.	.	.	.	.	.
8F/J 8G# 8B|	.	.	.	.	.	.
8G#\L 8B 8d|	8f/L] 8ff]	.	.	.	.	.
8F\ 8G# 8B|	8e/ 8ee	.	.	.	.	.
8D\J 8F 8G#|	8d/J) 8dd	.	.	.	.	.
=26	=26	=26	=26	=26	=26	=26
*	*^	*	*	*	*	*
!	!LO:S:color=red	!	!	!	!	!	!
8CC/L 8C	8.e^>/L 8.a (<8.ee	4.e\	.	4aa\)	.	.	.
(>8C/ 8E	.	.	.	.	.	.	.
.	16dd/K	.	.	.	.	.	.
8E/J) 8A	8cc/J)	.	.	8ee\	cier-	.	.
!	!LO:S:color=red	!	!	!	!	!	!
8GGG/L 8GG	8.b^>/L (>8.dd	4g\	.	4ggn\	-pie-	.	.
!LO:TX:b:t=g:color=red	!	!	!	!	!	!	!
(>8GG/ 8D	.	.	.	.	.	.	.
.	16cc/K	.	.	.	.	.	.
8D/J) 8G	8b/J)	8f\	.	8ff\	-nia	.	.
!	!LO:S:color=red	!	!	!	!	!	!
8AAA/L 8AA	(<8.cc^>/L	4.e\	.	8.ee\L	mo-	.	.
(>8AA/ 8C	.	.	.	.	.	.	.
.	16b/K	.	.	16dd\Jk	.	.	.
8C/J) 8E	8a/J)	.	.	8cc\	-je	.	.
8FF'</L 8F	8g#X/L 8b|	4.ryy	.	(>8b\L	skró-	.	.
8FF'</ 8F	8a/ 8cc|	.	.	8cc\J)	.	.	.
8FF'</J 8F	8b/J 8dd|	.	.	8dd\	-ci	.	.
!!LO:LB:g=original
=27	=27	=27	=27	=27	=27	=27	=27
*ped	*	*	*	*	*	*	*
!LO:TX:t=P:problem:oznaczenie pedalizacji w t. 27 na czerwono	!	!	!	!	!	!	!
!LO:S:color=red	!LO:S:color=red	!	!LO:DY:color=red	!LO:TX:a:t=e:color=red	!	!	!
(>16EE/ 16E	(<16e/LL 16ee	2ryy	f	[4.ee\	czas!	.	.
*Xped	*	*	*	*	*	*	*
16c\LL	16cc/	.	.	.	.	.	.
16B\	16b/	.	.	.	.	.	.
16A\	16a/	.	.	.	.	.	.
16G\	16g/	.	.	.	.	.	.
16F\JJ)	16f/JJ)	.	.	.	.	.	.
8E/L|	(<16e/LL	.	.	4ee\]	.	.	.
.	16a/JJ)	.	.	.	.	.	.
8C/|	(<16c/LL	2ryy	.	.	.	.	.
.	16e/JJ)	.	.	.	.	.	.
8AA/J|	(<16A/LL	.	.	8r	.	.	.
.	16c/JJ)	.	.	.	.	.	.
8EE/L 8E	8r	.	.	8r	.	.	.
8E'</	8e/L'<	.	<	16e/LL	skró-	.	.
.	.	.	.	16g#X/JJ	.	.	.
8E'</J	8d/J 8e 8b'<	8ryy	.	16b\LL	-ci	.	.
.	.	.	.	16dd\JJ	.	.	.
4E;>\	8dd;>/L	8f\L [8g#X	[ >	4ff;>\	tyl-	.	.
.	8cc/	8e\ 8g#]	.	.	.	.	.
8E\	8b/J	8d\J 8g#	.	8ee\	-ko	.	.
*	*v	*v	*	*	*	*	*
=28	=28	=28	=28	=28	=28	=28
*^	*	*	*	*	*	*
*	*tremolo	*tremolo	*	*	*	*	*
!	!	!	!LO:DY:rj	!	!	!	!LO:DY:a
2.E/	8AA\L	8c/L 8a	] pp	2.ee\	czas!	.	>
.	8AA\	8c/ 8a	.	.	.	.	.
.	8AA\J	8c/J 8a	.	.	.	.	.
.	8AA\L	8c#X/L 8a	.	.	.	.	.
.	8AA\	8c#/ 8a	.	.	.	.	.
.	8AA\J	8c#/J 8a	.	.	.	.	.
!	!	!	!	!	!	!	!LO:DY:a
2.E/	8AA\L	8cn/L 8a	.	[>4.ee\	Żeg-	.	] p
.	8AA\	8c/ 8a	.	.	.	.	.
.	8AA\J	8c/J 8a	.	.	.	.	.
.	8AA\L	8c#X/L 8a	.	4ee\]	.	.	.
.	8AA\	8c#/ 8a	.	.	.	.	.
.	8AA\J	8c#/J 8a	.	8cc#X\	-nam	.	.
*	*Xtremolo	*Xtremolo	*	*	*	*	*
=29	=29	=29	=29	=29	=29	=29	=29
*	*tremolo	*tremolo	*	*	*	*	*
[>4.E/	8AA\L	8cn/L 8a	.	[>4.ee\	cię	.	.
.	8AA\	8c/ 8a	.	.	.	.	.
.	8AA\	8c/J 8a	.	.	.	.	.
4E/]	8AA\	8c#X/L 8a	.	4ee\]	.	.	.
.	8AA\	8c#/ 8a	.	.	.	.	.
(>8E/	8AA\J	8c#/J 8a	.	8cc#X\	wy-	.	.
4F/	8AA\L	8d/L 8g#X	.	(>4b\	-brze-	.	.
.	8AA\	8d/ 8g#	.	.	.	.	.
8F#X/	8AA\	8d/J 8g#	.	(>8dd\)	.	.	.
4F##X/	8AA\	8d/L 8e	.	4cc#\)	.	.	.
.	8AA\	8d/ 8e	.	.	.	.	.
8G#X/)	8AA\J	8d/J 8e	.	8b\	-że	.	.
*	*Xtremolo	*Xtremolo	*	*	*	*	*
!!LO:LB:g=original
=30	=30	=30	=30	=30	=30	=30	=30
*	*tremolo	*	*	*	*	*	*
2.A/	8AA\L	8c#X/L 8e	<	[>4.ee\	mi-	[[lu-	.
.	8AA\	8c#/ 8e	.	.	.	.	.
.	8AA\	8c#/J 8e	.	.	.	.	.
.	8AA\	8c#/L 8e 8a	.	8ee\L]	.	.	.
.	8AA\	8c#/ 8e 8a	.	8dd\J	.	.	.
.	8AA\J	8c#/J 8e 8a	.	8ee\	-łe	-be]]	.
*tremolo	*	*tremolo	*	*	*	*	*
!	!	!	!LO:DY:rj	!	!	!	!LO:DY:a
8DD/L 8D	4ryy	8cn/L 8d 8f#X 8a	[ f	[>4.ff#X\	już	.	f
8DD/ 8D	.	8c/ 8d 8f# 8a	>	.	.	.	.
8DD/ 8D	2ryy	8c/ 8d 8f# 8a	.	.	.	.	.
!	!	!	!	!	!	!	!LO:HP:a
8DD/ 8D	.	8c/ 8d 8f# 8a	.	8ff#\L]	.	.	>
8DD/ 8D	.	8c/ 8d 8f# 8a	.	8ee\J	.	.	.
8DD/ 8DJ	.	8c/J 8d 8f# 8a	]]	8dd\	cię	.	]
*Xtremolo	*Xtremolo	*Xtremolo	*	*	*	*	*
=31	=31	=31	=31	=31	=31	=31	=31
*	*	*tremolo	*	*	*	*	*
!	!	!	!LO:DY:rj	!	!	!	!LO:DY:a
8DL	2.DD\	8d/L 8fn 8b-X	pp	[>4.ffn\	wię-	.	pp
8D/	.	8d/ 8f 8b-	.	.	.	.	.
8D/J	.	8d/ 8f 8b-	.	.	.	.	.
*tremolo	*	*	*	*	*	*	*
8D/L	.	8d/ 8f 8b-	.	8ff\L]	.	.	.
8D/	.	8d/ 8f 8b-	.	8ee\J	.	.	.
8D/J	.	8d/J 8f 8b-	.	8dd\	-cej	.	.
*	*	*Xtremolo	*	*	*	*	*
8E/L	2.EE\	8c#X/L 8e 8a	.	8cc#X\L	nie	.	.
8E/	.	8B/ 8d 8a	.	8b\J	.	.	.
8E/	.	8c#/J 8e 8a	.	8cc#\	o-	.	.
8E/	.	8d/L 8f#X 8a	.	4dd\	-ba-	.	.
8E/	.	8d/ 8f# 8a	.	.	.	.	.
!	!	!LO:ACC:color=red	!	!LO:ACC:color=red	!	!	!
8E/J	.	8d/J 8g#X	.	8g#X/	-czę	.	.
*Xtremolo	*	*	*	*	*	*	*
*v	*v	*	*	*	*	*	*
=32	=32	=32	=32	=32	=32	=32
*tremolo	*tremolo	*	*	*	*	*
8AA/L 8E	8c#X/L 8a	.	4a/	cię!	.	.
8AA/ 8E	8c#/ 8a	.	.	.	.	.
8AA/J 8E	8c#/J 8a	.	8r	.	.	.
*Xtremolo	*Xtremolo	*	*	*	*	*
8AA'</L 8E	8c#'</L 8a	.	4r	.	.	.
8AA'</ 8E	8c#'</ 8a	.	.	.	.	.
8D^</J 8F	8d^</J 8a	.	8a/	W da-	.	.
*rep	*rep	*	*	*	*	*
8AA'</L 8E	8c#'</L 8a	.	4a/	-le-	.	.
8AA'</ 8E	8c#'</ 8a	.	.	.	.	.
8D^</J 8F	8d^</J 8a	.	8a/	-ką	.	.
*Xrep	*Xrep	*	*	*	*	*
*rep	*rep	*	*	*	*	*
8AA'</L 8E	8c#'</L 8a	.	4a/	dro-	.	.
8AA'</ 8E	8c#'</ 8a	.	.	.	.	.
8D^</J 8F	8d^</J 8a	.	8dd\	-gę	.	.
*Xrep	*Xrep	*	*	*	*	*
!!LO:LB:g=original
=33	=33	=33	=33	=33	=33	=33
*tremolo	*tremolo	*	*	*	*	*
8AA\L 8A	8c#X/L 8e 8a	.	4.cc#X\	czas!	.	.
8AA\ 8A	8c#/ 8e 8a	.	.	.	.	.
8AA\J 8A	8c#/J 8e 8a	.	.	.	.	.
*Xtremolo	*Xtremolo	*	*	*	*	*
8AA'>\L 8A	8c#'</L 8e 8a	.	8r	.	.	.
8AA'>\ 8A	8c#'</ 8e 8a	.	8r	.	.	.
8D^>\J 8A	8d^</J 8f 8a	.	8a/	w da-	.	.
*rep	*rep	*	*	*	*	*
!	!LO:TX:b:t=cres._cen._do:problem:dynamics with extention lines	!LO:HP:b:t=cres._cen._do:ext=ud	!	!	!	!
8AA'>\L 8A	8c#'</L 8e 8a	<	4dd\	-le-	.	.
8AA'>\ 8A	8c#'</ 8e 8a	.	.	.	.	.
8D^>\J 8A	8d^</J 8f 8a	.	8a\	-ką	.	.
*Xrep	*Xrep	*	*	*	*	*
*rep	*rep	*	*	*	*	*
8AA'>\L 8A	8c#'</L 8e 8a	.	4cc#\	dro-	.	.
8AA'>\ 8A	8c#'</ 8e 8a	.	.	.	.	.
8D^>\J 8A	8d^</J 8f 8a	.	8dd\	-gę	.	.
*Xrep	*Xrep	*	*	*	*	*
=34	=34	=34	=34	=34	=34	=34
*tremolo	*tremolo	*	*	*	*	*
8AA\L 8E 8A	8e/L 8a 8cc#X	.	[>4.ee\	czas!	.	.
8AA\ 8E 8A	8e/ 8a 8cc#	.	.	.	.	.
8AA\J 8E 8A	8e/J 8a 8cc#	.	.	.	.	.
*Xtremolo	*Xtremolo	*	*	*	*	*
8AA/L 8A|	8e'</L 8a 8cc#	.	4ee\]	.	.	.
8AA/ 8A|	8e'</ 8a 8cc#	.	.	.	.	.
8DD^</J 8D	8f^</J 8a 8dd	.	8a/	po-	.	.
*rep	*rep	*	*	*	*	*
8AA/L 8A|	8e'</L 8a 8cc#	.	4ee^>\	-że-	.	.
8AA/ 8A|	8e'</ 8a 8cc#	.	.	.	.	.
8DD^</J 8D	8f^</J 8a 8dd	[	8a/	-gnam,	.	.
*Xrep	*Xrep	*	*	*	*	*
8AA/L 8A	8a\L 8cc# 8ee|	.	4ee\	że-	.	.
8AA/ 8A	8a\ 8cc# 8ee|	.	.	.	.	.
8DD^</J 8D	8a^>\J 8dd 8ff	.	8a/	-gnam	.	.
=35	=35	=35	=35	=35	=35	=35
*	*tremolo	*	*	*	*	*
*	*2\right	*	*	*	*	*
!	!	!LO:DY:rj	!	!	!	!
8FF/L 8F	8a^^>\L 8cc 8ff 8aa	ff	[>1.aa	Was!	.	.
(<8A/	8a\ 8cc 8ff 8aa	.	.	.	.	.
8F/J	8a\ 8cc 8ff 8aa	.	.	.	.	.
8C/L	8a\ 8cc 8ff 8aa	.	.	.	.	.
8F/	8a\ 8cc 8ff 8aa	.	.	.	.	.
8C/J	8a\J 8cc 8ff 8aa	.	.	.	.	.
8AA/L	8a\L 8cc 8ff 8aa	.	.	.	.	.
8C/	8a\ 8cc 8ff 8aa	.	.	.	.	.
8AA/J	8a\ 8cc 8ff 8aa	.	.	.	.	.
8FF/L	8a\ 8cc 8ff 8aa	.	.	.	.	.
8AA/	8a\ 8cc 8ff 8aa	.	.	.	.	.
8FF/J)	8a\J 8cc 8ff 8aa	.	.	.	.	.
*	*Xtremolo	*	*	*	*	*
!!LO:PB:g=original
=36	=36	=36	=36	=36	=36	=36
*	*^	*	*	*	*	*
*tremolo	*	*	*	*	*	*	*
*ped	*	*	*	*	*	*	*
64DD/LLLL	(>4ff/ (>4aa	8a\L	>	4aa\]	.	.	.
64AA/	.	.	.	.	.	.	.
64DD/	.	.	.	.	.	.	.
64AA/	.	.	.	.	.	.	.
64DD/	.	.	.	.	.	.	.
64AA/	.	.	.	.	.	.	.
64DD/	.	.	.	.	.	.	.
64AA/	.	.	.	.	.	.	.
64DD/	.	8a\	.	.	.	.	.
64AA/	.	.	.	.	.	.	.
64DD/	.	.	.	.	.	.	.
64AA/	.	.	.	.	.	.	.
64DD/	.	.	.	.	.	.	.
64AA/	.	.	.	.	.	.	.
64DD/	.	.	.	.	.	.	.
64AA/	.	.	.	.	.	.	.
!	!	!	!	!	!	!	!LO:HP:a
64DD/	8dd/)) 8ff	8a\J	.	8ff\	w da-	.	>
64AA/	.	.	.	.	.	.	.
64DD/	.	.	.	.	.	.	.
64AA/	.	.	.	.	.	.	.
64DD/	.	.	.	.	.	.	.
64AA/	.	.	.	.	.	.	.
64DD/	.	.	.	.	.	.	.
64AA/	.	.	.	.	.	.	.
64DD/	(>4ff/	8a\L 8dd 8ff	.	4ff\	-le-	.	.
64AA/	.	.	.	.	.	.	.
64DD/	.	.	.	.	.	.	.
64AA/	.	.	.	.	.	.	.
64DD/	.	.	.	.	.	.	.
64AA/	.	.	.	.	.	.	.
64DD/	.	.	.	.	.	.	.
64AA/	.	.	.	.	.	.	.
64DD/	.	8a\	.	.	.	.	.
64AA/	.	.	.	.	.	.	.
64DD/	.	.	.	.	.	.	.
64AA/	.	.	.	.	.	.	.
64DD/	.	.	.	.	.	.	.
64AA/	.	.	.	.	.	.	.
64DD/	.	.	.	.	.	.	.
64AA/	.	.	.	.	.	.	.
64DD/	8dd/)	8f\J 8a	.	8dd\	-ką	.	.
64AA/	.	.	.	.	.	.	.
64DD/	.	.	.	.	.	.	.
64AA/	.	.	.	.	.	.	.
64DD/	.	.	.	.	.	.	.
64AA/	.	.	.	.	.	.	.
64DD/	.	.	.	.	.	.	.
64AA/JJJJ	.	.	.	.	.	.	.
64DD/LLLL	(>4dd/	8f\L 8a	.	4dd\	dro-	.	.
64AA/	.	.	.	.	.	.	.
64DD/	.	.	.	.	.	.	.
64AA/	.	.	.	.	.	.	.
64DD/	.	.	.	.	.	.	.
64AA/	.	.	.	.	.	.	.
64DD/	.	.	.	.	.	.	.
64AA/	.	.	.	.	.	.	.
64DD/	.	8f\ 8a	.	.	.	.	.
64AA/	.	.	.	.	.	.	.
64DD/	.	.	.	.	.	.	.
64AA/	.	.	.	.	.	.	.
64DD/	.	.	.	.	.	.	.
64AA/	.	.	.	.	.	.	.
64DD/	.	.	.	.	.	.	.
64AA/	.	.	.	.	.	.	.
64DD/	8a/)	8d\J 8f	]	8a/	-gę	.	.
64AA/	.	.	.	.	.	.	.
64DD/	.	.	.	.	.	.	.
64AA/	.	.	.	.	.	.	.
64DD/	.	.	.	.	.	.	.
64AA/	.	.	.	.	.	.	.
64DD/	.	.	.	.	.	.	.
64AA/	.	.	.	.	.	.	.
64DD/	(>4f/ 4a	8d\L	.	4a/	czas!	.	.
64AA/	.	.	.	.	.	.	.
64DD/	.	.	.	.	.	.	.
64AA/	.	.	.	.	.	.	.
64DD/	.	.	.	.	.	.	.
64AA/	.	.	.	.	.	.	.
64DD/	.	.	.	.	.	.	.
64AA/	.	.	.	.	.	.	.
64DD/	.	8d\ 8f	.	.	.	.	.
64AA/	.	.	.	.	.	.	.
64DD/	.	.	.	.	.	.	.
64AA/	.	.	.	.	.	.	.
64DD/	.	.	.	.	.	.	.
64AA/	.	.	.	.	.	.	.
64DD/	.	.	.	.	.	.	.
64AA/	.	.	.	.	.	.	.
64DD/	8a/) 8b	8d\J 8f	.	8b/	już	.	.
64AA/	.	.	.	.	.	.	.
64DD/	.	.	.	.	.	.	.
64AA/	.	.	.	.	.	.	.
64DD/	.	.	.	.	.	.	.
64AA/	.	.	.	.	.	.	.
64DD/	.	.	.	.	.	.	.
*Xped	*	*	*	*	*	*	*
64AA/JJJJ	.	.	.	.	.	.	.
*Xtremolo	*	*	*	*	*	*	*
=37	=37	=37	=37	=37	=37	=37	=37
!	!	!	!LO:DY:rj	!	!	!	!LO:DY:a:rj
*ped	*	*	*	*	*	*	*
8AAA/L	2.a/ 2.cc#X	2.c#X\ 2.e	p	[>2.cc#X\	czas!	.	p
8AA/ 8E	.	.	.	.	.	.	.
8AA/J 8E	.	.	.	.	.	.	.
*tremolo	*	*	*	*	*	*	*
8AA/L 8E	.	.	.	.	.	.	.
8AA/ 8E	.	.	.	.	.	.	.
8AA/J 8E	.	.	.	.	.	.	.
!	!	!	!LO:DY:rj	!	!	!	!
8AA/L 8E	2.ryy	[<4.cc#\ (>[<4.ee	pp	4cc#\]	.	.	.
8AA/ 8E	.	.	.	.	.	.	.
8AA/ 8E	.	.	.	8r	.	.	.
8AA/ 8E	.	4cc#\] 4ee]	.	4r	.	.	.
8AA/ 8E	.	.	.	.	.	.	.
8AA/J 8E	.	8a\) 8cc#	.	8r	.	.	.
*Xtremolo	*	*	*	*	*	*	*
*	*v	*v	*	*	*	*	*
=38	=38	=38	=38	=38	=38	=38
*tremolo	*	*	*	*	*	*
8AA/L 8E	[>4.cc#X\ (>[>4.ee	.	1.r	.	.	.
8AA/ 8E	.	.	.	.	.	.
8AA/ 8E	.	.	.	.	.	.
8AA/ 8E	4cc#\] 4ee]	.	.	.	.	.
8AA/ 8E	.	.	.	.	.	.
8AA/J 8E	8a\) 8cc#	.	.	.	.	.
*Xtremolo	*	*	*	*	*	*
4AA/ 4E	4cc#'>\ 4ee	.	.	.	.	.
8r	8r	.	.	.	.	.
4r	4r	.	.	.	.	.
8r	8r	.	.	.	.	.
!!LO:LB:g=original
=39	=39	=39	=39	=39	=39	=39
4AA/ 4E	4c#X/ 4a	.	1.r;>	.	.	.
8r	8r	.	.	.	.	.
4r	4r	.	.	.	.	.
8r	8r	.	.	.	.	.
2.AAA;>/ 2.AA	2.A;>/	.	.	.	.	.
==	==	==	==	==	==	==
*-	*-	*-	*-	*-	*-	*-
!!!system-decoration: [{g1,g2}]
!!!ENC: Andrzej Gręziak
!!!END: 2021-08-17
!!!EED: Jędrzej Mróz
!!!ESR: 2021-09-27
!!!RDF**kern: > = above
!!!RDF**kern: < = below
!!!RDF**kern: @ = marked note, color=red
!!!RDF**kern: j = marked note, color=blue
!!!RDF**dynam: > = "dimin:", fontstyle="normal"
!!!RDF**kern: | = vertical stroke
